applemusic.svg

<svg viewBox="0 0 24 24" xmlns="http://www.w3.org/2000/svg"><defs><linearGradient gradientTransform="matrix(1.40072 0 0 1.40072 -14.9551 -15.7548)" gradientUnits="userSpaceOnUse" id="LinearGradient" x1="12.5185" x2="25.9691" y1="19.8147" y2="19.8147"><stop offset="0" stop-color="#fa233b"/><stop offset="1" stop-color="#fb5c74"/></linearGradient></defs><path d="M20.5443 0.00332542C20.4603 0.0173329 19.6794 0.164403 19.5813 0.178415L9.11971 2.27949C8.83956 2.33552 8.63121 2.44582 8.46312 2.5859C8.26702 2.75399 8.15496 3.00612 8.11294 3.28626C8.09893 3.34229 8.06917 3.46835 8.06917 3.63644C8.06917 3.63644 8.06917 14.3152 8.06917 16.7244C8.06917 17.0326 8.06042 17.3477 7.85031 17.5999C7.6402 17.852 7.37056 17.9378 7.0624 17.9938L6.40581 18.1251C5.53737 18.2932 4.98409 18.4105 4.47983 18.6066C3.98958 18.8027 3.59212 19.0566 3.29797 19.3508C2.72367 19.9531 2.51357 20.783 2.59761 21.5394C2.66764 22.1977 2.92503 22.814 3.42929 23.2903C3.76546 23.5984 4.2382 23.8348 4.74246 23.9469C5.26073 24.0589 5.81226 23.9836 6.62468 23.8155C7.0589 23.7315 7.47211 23.6019 7.85031 23.3778C8.2285 23.1537 8.56117 22.8666 8.8133 22.5024C9.06543 22.1382 9.24052 21.711 9.33857 21.2767C9.43662 20.8285 9.42611 20.4118 9.42611 19.9636L9.42611 8.6265C9.42611 8.01018 9.59245 7.8631 10.0827 7.75105C10.0827 7.75105 18.7812 5.99665 19.1874 5.91261C19.7477 5.80055 20.0628 5.93712 20.0628 6.52542L20.0628 14.3169C20.0628 14.6251 20.0541 14.9402 19.844 15.1924C19.6339 15.4445 19.3642 15.5303 19.0561 15.5863C18.8319 15.6283 18.6236 15.6756 18.3995 15.7176C17.531 15.8857 16.934 16.003 16.4297 16.1991C15.9395 16.3952 15.5858 16.6491 15.2916 16.9433C14.7173 17.5456 14.4775 18.3317 14.5475 19.0881C14.6175 19.7465 14.9047 20.3628 15.4229 20.839C15.7591 21.1472 16.2319 21.3976 16.7361 21.4956C17.2544 21.6077 17.8059 21.5761 18.6183 21.4081C19.0526 21.324 19.4658 21.2085 19.844 20.9703C20.2222 20.7462 20.5548 20.4153 20.807 20.0511C21.0591 19.6869 21.1904 19.3035 21.2885 18.8693C21.3865 18.421 21.4198 18.0043 21.4198 17.5561L21.4198 0.922547C21.4338 0.320238 21.1046-0.0386918 20.5443 0.00332542Z" fill="url(#LinearGradient)"/></svg>

<svg viewBox="0 0 24 24" xmlns="http://www.w3.org/2000/svg"><defs><linearGradient gradientTransform="translate(-14.955 -15.755) scale(1.40072)" gradientUnits="userSpaceOnUse" id="a" x1="12.518" x2="25.969" y1="19.815" y2="19.815"><stop offset="0" stop-color="#fa233b"/><stop offset="1" stop-color="#fb5c74"/></linearGradient></defs><path d="M20.544.003c-.084.014-.865.161-.963.175L9.12 2.28c-.28.057-.489.167-.657.307-.196.168-.308.42-.35.7a1.418 1.418 0 0 0-.044.35v13.088c0 .309-.009.624-.219.876s-.48.338-.788.394l-.656.131c-.869.168-1.422.285-1.926.482-.49.196-.888.45-1.182.744-.574.602-.784 1.432-.7 2.188.07.659.327 1.275.831 1.751.336.308.81.545 1.313.657.519.112 1.07.037 1.883-.131.434-.084.847-.214 1.225-.438a3.03 3.03 0 0 0 .963-.876c.252-.364.428-.791.526-1.225.098-.449.087-.865.087-1.313V8.627c0-.617.166-.764.657-.876 0 0 8.698-1.754 9.104-1.838.56-.112.876.024.876.612v7.792c0 .308-.009.623-.219.875s-.48.338-.788.394c-.224.042-.432.09-.657.132-.868.168-1.465.285-1.97.481-.49.196-.843.45-1.137.744a2.729 2.729 0 0 0-.745 2.145c.07.659.358 1.275.876 1.751.336.308.809.559 1.313.657.518.112 1.07.08 1.882-.088.435-.084.848-.2 1.226-.438.378-.224.71-.555.963-.919.252-.364.383-.747.482-1.182.098-.448.13-.865.13-1.313V.923c.015-.603-.314-.962-.875-.92Z" fill="url(#a)"/></svg>
